svgs/light/message-arrow-up.svg

<svg xmlns="http://www.w3.org/2000/svg" viewBox="0 0 512 512"><!-- Font Awesome Pro 6.0.0-alpha2 by @fontawesome - https://fontawesome.com License - https://fontawesome.com/license (Commercial License) --><path d="M267.312 100.688C264.188 97.562 260.094 96 256 96S247.812 97.562 244.688 100.688L164.688 180.688C158.438 186.938 158.438 197.063 164.688 203.312S181.063 209.562 187.312 203.312L240 150.625V304C240 312.844 247.156 320 256 320S272 312.844 272 304V150.625L324.688 203.312C330.938 209.562 341.063 209.562 347.312 203.312S353.562 186.937 347.312 180.688L267.312 100.688ZM448 0H64C28.75 0 0 28.75 0 64V352.002C0 387.252 28.75 416.002 64 416.002H160V500.002C160 509.84 171.025 515.479 179.125 509.627L304 416.002H448C483.25 416.002 512 387.252 512 352.002V64C512 28.75 483.25 0 448 0ZM480 352.002C480 369.602 465.6 384.002 448 384.002H303.924C296.996 384.002 290.254 386.25 284.713 390.408L192 460.002V400.002C192 391.164 184.836 384.002 176 384.002H64C46.4 384.002 32 369.602 32 352.002V64C32 46.4 46.4 32 64 32H448C465.6 32 480 46.4 480 64V352.002Z"/></svg>

<svg xmlns="http://www.w3.org/2000/svg" viewBox="0 0 512 512"><!--! Font Awesome Pro 6.3.0 by @fontawesome - https://fontawesome.com License - https://fontawesome.com/license (Commercial License) Copyright 2023 Fonticons, Inc. --><path d="M267.3 100.7C264.2 97.56 260.1 96 256 96S247.8 97.56 244.7 100.7l-80 80c-6.25 6.25-6.25 16.38 0 22.62s16.38 6.25 22.62 0L240 150.6V304C240 312.8 247.2 320 256 320s16-7.156 16-16V150.6l52.69 52.69c6.25 6.25 16.38 6.25 22.62 0s6.25-16.38 0-22.62L267.3 100.7zM448 0H64C28.75 0 0 28.75 0 63.1v287.1c0 35.25 28.75 63.1 64 63.1h96v83.1c0 9.838 11.03 15.55 19.12 9.7L304 415.1H448c35.25 0 64-28.75 64-63.1V63.1C512 28.75 483.3 0 448 0zM480 352c0 17.6-14.4 32-32 32h-144.1c-6.928 0-13.67 2.248-19.21 6.406L192 460v-60c0-8.838-7.164-16-16-16H64c-17.6 0-32-14.4-32-32V64c0-17.6 14.4-32 32-32h384c17.6 0 32 14.4 32 32V352z"/></svg>
